!!!!SEGMENT: pl-wtm--r-1229-4-m_moniuszko-stanislaw--wedrowna-ptaszyna.krn
!!!cenid: 18xx:2855
!!!COM: Moniuszko, Stanisław
!!!COM-rismID:
!!!CDT: 1819/05/05-1872/06/04
!!!CNT: Polish
!!!OTL: Wędrowna ptaszyna
!!!PDT:
!!!AGN:
!!!SMS-siglum: PL-Wtm
!!!SMS-shelfmark: R 1229/4/M
!!!SMS-shelfwork: W
!!!SMS-variant:
!!!SMS-altvar:
!!!NIFC-rismSourceID: 1001100458
!!!NIFC-islandoraID:
!!!URL-pdf-islandora:
!!!URL-scan:
!!!ONB-nifc: UWAGA: obsada: Coro S, Coro A, Coro T, Coro B, pf
!!!OMD: Andantino.
!!!AIN: 1 alto 1 bass 1 forte 1 soprn 1 tenor
!!!key:
**kern	**kern	**dynam	**kern	**kern	**text	**text	**dynam
*part3	*part3	*part3	*part2	*part1	*part1	*part1	*part1
*staff4	*staff3	*	*staff2	*staff1	*staff1	*staff1	*
*Iforte	*Iforte	*	*Itenor&Ibass	*Isoprn&Ialto	*	*	*
*I"[Fortepian]	*I"[Fortepian]	*	*I"Tero / Bass	*I"Sapro / Alt	*	*	*
*>[A,B,B,C]	*>[A,B,B,C]	*	*>[A,B,B,C]	*>[A,B,B,C]	*	*	*
*>A	*>A	*	*>A	*>A	*	*	*
*clefF4	*clefG2	*	*clefF4	*clefG2	*	*	*
*k[b-e-a-d-]	*k[b-e-a-d-]	*	*k[b-e-a-d-]	*k[b-e-a-d-]	*	*	*
*f:	*f:	*	*f:	*f:	*	*	*
*M2/4	*M2/4	*	*M2/4	*M2/4	*	*	*
=1	=1	=1	=1	=1	=1	=1	=1
!	!LO:TX:B:t=Andantino	!	!	!	!	!	!
(8FF\L	4r	p <	2r	2r	.	.	.
8C\	.	.	.	.	.	.	.
8A-\	8r	.	.	.	.	.	.
8F\J)	8a-/	[[	.	.	.	.	.
!LO:TX:b:t=[segno]	!LO:TX:a:t=[segno]	!	!LO:TX:b:t=[segno]	!LO:TX:a:t=[segno]	!	!	!
=2!|:	=2!|:	=2!|:	=2!|:	=2!|:	=2!|:	=2!|:	=2!|:
*>B	*>B	*	*>B	*>B	*	*	*
*	*^	*	*	*	*	*	*
(8Dn/L	(8.g/L	4Bn\ 4f	>	2r;	2r;	.	.	.
8GG/	.	.	.	.	.	.	.	.
.	16a-/K	.	.	.	.	.	.	.
8C/	8g/	8B-X\ 8en	]	.	.	.	.	.
16CC/Jk)	16c/Jk)	8r	.	.	.	.	.	.
16r;	16r;	.	.	.	.	.	.	.
*	*v	*v	*	*	*	*	*	*
=3	=3	=3	=3	=3	=3	=3	=3
*	*	*	*^	*	*	*	*
!	!	!	!	!	!LO:TX:t=P:problem=tekst obu zwrotek zapisany nad górnym systemem	!	!	!LO:DY:b
8FF/	8.A-/L 8.f	p	8.A-/	8.F\	8.c/ 8.f	Pta-	Czyś	p
(4C/	.	.	.	.	.	.	.	.
.	16B-/K 16g	.	16B-/	16C\	16c/ 16g	-szku,	nie	.
.	8A-/ 8f	.	8A-/	8C\	8c/ 8f	pta-	sły-	.
8CC/)	8G/J 8en	.	8G/	8C\	8c/ 8en	-szku	-szał	.
=4	=4	=4	=4	=4	=4	=4	=4	=4
*rep	*rep	*	*	*	*	*	*	*
8FF/	8.A-/L 8.f	.	8.A-/	8.F\	8.c/ 8.f	skąd	za-	.
(4C/	.	.	.	.	.	.	.	.
.	16B-/K 16g	.	16B-/	16C\	16c/ 16g	przy-	-du-	.
.	8A-/ 8f	.	8A-/	8C\	8c/ 8f	-la-	-ma-	.
8CC/)	8G/J 8en	.	8G/	8C\	8c/ 8en	-tasz?	-nej	.
*Xrep	*Xrep	*	*	*	*	*	*	*
=5	=5	=5	=5	=5	=5	=5	=5	=5
8FF/	8.A-/L 8.f	.	8.A-/	8.F\	8.c/ 8.f	czy	u-	.
(<4C/	.	.	.	.	.	.	.	.
.	16c/K 16g	.	16c/	16C\	16en/ 16g	nie	-ro-	.
.	8f/ 8a-	.	8c/	8F\	8f/ 8a-	na-	-nio-	.
8F\)	8g/J 8b-	.	8c/	8F\	8g/ 8b-	-szych	-nych	.
=6	=6	=6	=6	=6	=6	=6	=6	=6
*	*^	*	*	*	*^	*	*	*
!!LO:LB:g=original
(8.FF\L	(2cc/	4.a-\	.	2c/	(4F\	2cc/	(4a-\	ziem?	słów?	.
16C\K	.	.	.	.	.	.	.	.	.	.
8F\	.	.	.	.	4A-\)	.	4g\)	.	.	.
8A-\J)	.	8f\	.	.	.	.	.	.	.	.
*	*	*	*	*	*	*v	*v	*	*	*
=7	=7	=7	=7	=7	=7	=7	=7	=7	=7
(8G/L	8.bn/L)	4f\	.	8.dn/	8.G\	8.f/ 8.bn	Niech	w te	.
8GG/J)	.	.	.	.	.	.	.	.	.
.	16g/Jk	.	.	16Bn/	16G\	16f/ 16g	od	li	.
(8C/L	4b-X/	8.en\L	.	8.c/	8.C\	8.en/ 8.b-X	cie-	stro-	.
8CC/J)	.	.	.	.	.	.	.	.	.
.	.	16c\Jk	.	16c/	16C\	16e/ 16b-	-bie	-ny	.
=8	=8	=8	=8	=8	=8	=8	=8	=8	=8
(8FF\L	8.an/L	4en\	.	8.c/	8.F\	8.e-X/ 8.an	o	nie	.
8F\J)	.	.	.	.	.	.	.	.	.
.	16f/Jk	.	.	16An/	16F\	16e-/ 16f	naj-	pa-	.
8BB-X/L	[4a-X/	8.d-\L	.	8.B-/	8.BB-\	8.d-/ 8.a-X	-mil-	-trza-	.
8BBn/J	.	.	.	.	.	.	.	.	.
.	.	16f\Jk	.	16dn/	16BBn\	16f/ 16a-	-szej	-ła?	.
=9	=9	=9	=9	=9	=9	=9	=9	=9	=9
*	*	*	*	*	*	*^	*	*	*
8C/	8a-/]	8c\	.	8.c/	8.C\	8.f/ 8.a-	8.ryy	choć	mów	.
(8C/L	(4a-/	8c\L	.	.	.	.	.	.	.	.
.	.	.	.	16C/	16C\	16c/	16c\	pół	mi	.
8Dn/)	.	8Bn\	.	8.Dn/	8.C\	8.Bn/ 8.a-	8.ryy	słów-	pta-	.
8En'/J	8g/	8B-X\J	.	.	.	.	.	.	.	.
.	.	.	.	16En/	16C\	16B-X/ 16g	16ryy	-ka	-szku	.
*	*v	*v	*	*	*	*v	*v	*	*	*
=10	=10	=10	=10	=10	=10	=10	=10	=10
(8.F/L	4.A-/) 4.f	.	4F/	4FF\	4A-/ 4f	wiesz.	mów.	.
16C/K	.	.	.	.	.	.	.	.
8FF/	.	.	4r	4ryy	4r	.	.	.
8Dn/J)	8c/ 8f 8a-	.	.	.	.	.	.	.
=11	=11	=11	=11	=11	=11	=11	=11	=11
!!LO:LB:g=original
8GG/	8r	.	8.Bn/	8.G\	8.d-/ 8.g	czyś	ach	.
8r	8Bn/ 8d- 8g	.	.	.	.	.	.	.
.	.	.	16B/	16GG\	16d-/ 16a-	nie	u-	.
8BBn/	8r	.	8G/	8BBn\	8d-/ 8g	by-	-la-	.
8r	8G/ 8d- 8f	.	8G/	8BB\	8d-/ 8f	-wał	-tasz.	.
=12	=12	=12	=12	=12	=12	=12	=12	=12
8C\L	8r	.	8G/	8C\	8c/ 8en	w jej	ach	.
8G\	8c/L 8en	.	8c/	8G\	8en/ 8g	o-	nie	.
8En\	8c/ 8g	.	8.c/	8.En\	8.g/ 8.cc	-gród-	mó-	.
8C\J	8c/J 8e	.	.	.	.	.	.	.
.	.	.	16c/	16C\	16e/ 16g	-ku?	-wisz,	.
=13	=13	=13	=13	=13	=13	=13	=13	=13
*	*	*	*	*	*^	*	*	*
8BBn/	8r	.	8.d-/	8.BBn\	8.g/	8.f\	czyś	któż	.
8r	8dn/ 8f	.	.	.	.	.	.	.	.
!	!	!	!	!	!LO:TUP:b	!	!	!	!
.	.	.	16d-/	16Bn\	48a-/LLL	16f\	nie	mu	.
.	.	.	.	.	48b-/	.	.	.	.
.	.	.	.	.	48a-/JJJ	.	.	.	.
8GG/	8r	.	8.B/	8.G\	8.g/	8.f\	wi-	wie-	.
8r	8Bn/ 8d 8f	.	.	.	.	.	.	.	.
.	.	.	16B/	16G\	16f/	16dn\	-dział	-dzieć	.
=14	=14	=14	=14	=14	=14	=14	=14	=14	=14
*^	*^	*	*	*	*	*	*	*	*
8r	2C\	2en/	8r	.	4c/	4C\	4en/	4e\	tam	da?	.
8B-\L	.	.	8d-\L	.	.	.	.	.	.	.	.
8A-\	.	.	8c\	.	4r	4ryy	4r	4ryy	.	.	.
8G\J	.	.	8B-\J	.	.	.	.	.	.	.	.
*v	*v	*	*	*	*	*	*v	*v	*	*	*
*	*v	*v	*	*	*	*	*	*	*
=15	=15	=15	=15	=15	=15	=15	=15	=15
!	!LO:TX:b:i:t=ral	!	!LO:TX:b:i:t=rall	!	!	!	!	!
8F\L	8.f/L	.	8.A-/	8.F\	8.c/ 8.f	tej	i	.
8En\	.	.	.	.	.	.	.	.
.	16c/K 16g	.	16G/	16En\	16c/ 16g	co	pta-	.
8E-X\	8f/ 8an	.	8F/	8E-X\	8c/ 8an	ja-	-szy-	.
8D-X\J	8f/J 8b-	.	8f/	8D-\	8B-/ 8b-	-sio	-na	.
=16	=16	=16	=16	=16	=16	=16	=16	=16
*	*^	*	*	*	*^	*	*	*
!	!	!	!LO:HP:a	!	!	!	!	!	!	!
8C/L	4cc/	8f\L 8an	<	8.f/	8.C\	8.cc/	8.An\	swym	u-	.
8AAn/J	.	8e-\J 8g-X	.	.	.	.	.	.	.	.
.	.	.	.	16e-/	16An\	16cc/	16g-X\	po-	-le-	.
4BB-;/	8.ff;/L	4f;\	.	8.d-/	8.B-;\	8.ee-;/	8.f\	-wa-	-cia-	.
.	16ee-/Jk	.	[	16B-/	16BB-\	16dd-/	16f\	-bem	-ła	.
*	*v	*v	*	*	*	*	*	*	*	*
=17	=17	=17	=17	=17	=17	=17	=17	=17	=17
!!LO:LB:g=original
!	!LO:TX:a:i:t=lento assai	!	!	!	!	!	!	!	!
16C/	8.r	.	8.A-/	8.C\ 8.A-	8.f/ 8.cc	8.ryy	ró-	do-	.
16r	.	.	.	.	.	.	.	.	.
4.C/	.	.	.	.	.	.	.	.	.
.	(16c/	.	16c/	16c\	16c/	16c\	-ży	-loż	.
.	8Bn/L 8dn	.	8.Bn/	8.c\	8.a-/	8.dn\	kwia-	mo-	.
.	8B-X/J) 8en	.	.	.	.	.	.	.	.
.	.	.	16B-X/	16c\	16g/	16en\	-tek	-ja	.
=18	=18	=18	=18	=18	=18	=18	=18	=18	=18
*^	*	*	*	*	*	*	*	*	*
!	!	!LO:TX:b:i:t=a Tempo	!	!	!	!	!	!	!	!
8FF/L	[2FF\	(>4.A-/ 4.f	.	4A-/	4F\	4f/	4f\	dam.	zła.	.
(<8C/	.	.	.	.	.	.	.	.	.	.
8F/	.	.	.	4r	4ryy	4r	4ryy	.	.	.
8C/J	.	8c/ 8a-	.	.	.	.	.	.	.	.
*	*	*	*	*v	*v	*	*	*	*	*
*	*	*	*	*	*v	*v	*	*	*
=19	=19	=19	=19	=19	=19	=19	=19	=19
8D-/L)	2FF\_	8.Bn/L 8.gn	.	2r	2r	.	.	.
8F/	.	.	.	.	.	.	.	.
.	.	16a-/K	.	.	.	.	.	.
8En/	.	8.B-X/ 8.g	.	.	.	.	.	.
8C/J	.	.	.	.	.	.	.	.
.	.	16c/Jk	.	.	.	.	.	.
*v	*v	*	*	*	*	*	*	*
=20	=20	=20	=20	=20	=20	=20	=20
*	*^	*	*	*	*	*	*
8FF\L]	8f/L	8A-\	.	2r	2r	.	.	.
8C\	8cc/	8r	.	.	.	.	.	.
8A-\	8b-/	4r	.	.	.	.	.	.
8F\J	8a-/J)	.	.	.	.	.	.	.
!LO:TX:a:t=[segno]	!LO:TX:a:t=[segno]	!LO:TX:a:t=[segno]	!	!LO:TX:a:t=[segno]	!LO:TX:a:t=[segno]	!	!	!
==21:|!	==21:|!	==21:|!	==21:|!	==21:|!	==21:|!	==21:|!	==21:|!	==21:|!
*>C	*>C	*>C	*	*>C	*>C	*	*	*
*^	*	*	*	*^	*^	*	*	*
!	!	!LO:TX:a:i:t=lento assai	!	!LO:DY:a	!	!	!	!	!	!	!
8Dn\L	8ryy	8.g/L	4Bn\ 4f	f	8.Bn/	8.BBn\	8.g/	8.f\	ró-	do-	.
8GG\J	8ryy	.	.	.	.	.	.	.	.	.	.
.	.	8qb-/	.	.	.	.	8qb-/	.	.	.	.
.	.	16a-/Jk	.	.	16B/	16G\	16a-/	16f\	-ży	-loż	.
[4C/	8C\L	8.g/L	4B-X\ 4en	.	8.B-X/	8.C\	8.g/	8.en\	kwia-	mo-	.
.	8CC\J	.	.	.	.	.	.	.	.	.	.
.	.	16c/Jk	.	.	16En/	16C\	16c/	16B-\	-tek	-ja	.
*	*	*v	*v	*	*	*	*v	*v	*	*	*
*	*	*	*	*v	*v	*	*	*	*
=22	=22	=22	=22	=22	=22	=22	=22	=22
2C/]	2FF\	2A-;/ 2f	.	2FF;\ 2F	2A-;/ 2f	dam.	zła.	.
*v	*v	*	*	*	*	*	*	*
==	==	==	==	==	==	==	==
*-	*-	*-	*-	*-	*-	*-	*-
!!!system-decoration: {(s1,s2)}{(s3,s4)}
!!!RDF**kern: > = above
!!!RDF**kern: < = below
!!!ENC: Kamil Watkowski
!!!END: 2021-08-10
